assets/images/sections/project-works/play-button.svg

<svg width="27" height="27" viewBox="0 0 27 27" version="1.1" xmlns="http://www.w3.org/2000/svg" xmlns:xlink="http://www.w3.org/1999/xlink">
<title>play-button</title>
<desc>Created using Figma</desc>
<g id="Canvas" transform="translate(-752 3179)">
<g id="play-button">
<g id="Shape">
<use xlink:href="#path0_fill" transform="translate(752 -3179)" fill="#F6928D"/>
</g>
<g id="Shape">
<use xlink:href="#path1_fill" transform="translate(761.093 -3171.98)" fill="#F6928D"/>
</g>
<g id="Shape">
<use xlink:href="#path2_fill" transform="translate(766.105 -3175.9)" fill="#F6928D"/>
</g>
</g>
</g>
<defs>
<path id="path0_fill" fill-rule="evenodd" d="M 16.9925 0.465576C 20.4741 1.39844 23.384 3.63135 25.1862 6.75293C 26.9884 9.87451 27.4673 13.511 26.5344 16.9927C 25.6015 20.4744 23.3685 23.384 20.2471 25.1863C 18.1679 26.3867 15.8601 27 13.5219 27C 12.3497 27 11.17 26.8459 10.0074 26.5344C 6.52582 25.6016 3.61584 23.3687 1.81372 20.2471C 0.0114746 17.1257 -0.467285 13.489 0.465576 10.0076C 1.39844 6.52588 3.63129 3.61597 6.75287 1.81372C 9.87445 0.0114746 13.5109 -0.467285 16.9925 0.465576ZM 19.5443 23.9695C 22.3408 22.355 24.3411 19.748 25.1769 16.6289C 26.0126 13.51 25.5837 10.2522 23.9691 7.45557C 22.3546 4.65918 19.7477 2.65894 16.6287 1.823C 15.5875 1.54395 14.5303 1.40601 13.4803 1.40601C 11.3854 1.40601 9.3183 1.95532 7.45551 3.03076C 4.659 4.64551 2.65869 7.2522 1.82294 10.3713C 0.987122 13.4905 1.41602 16.7483 3.03052 19.5447C 4.64508 22.3411 7.25195 24.3416 10.371 25.1772C 13.4901 26.0129 16.7479 25.584 19.5443 23.9695Z"/>
<path id="path1_fill" fill-rule="evenodd" d="M 2.20587 0.199463L 10.8821 5.2085C 11.3424 5.47437 11.6172 5.95044 11.6172 6.48193C 11.6172 7.01367 11.3425 7.48975 10.8821 7.75562L 2.20581 12.7649C 1.97565 12.8977 1.72308 12.9641 1.47052 12.9641C 1.21796 12.9641 0.965515 12.8977 0.735352 12.7649C 0.274841 12.499 0 12.0229 0 11.4912L 0 1.4729C 0 0.941162 0.274902 0.465088 0.735352 0.199219C 1.19574 -0.0664062 1.74548 -0.0664062 2.20587 0.199463ZM 1.50311 11.5479L 10.1793 6.53857C 10.1899 6.53247 10.212 6.51978 10.212 6.48218C 10.212 6.44458 10.19 6.43188 10.1794 6.42554L 1.50323 1.4165C 1.4967 1.4126 1.48608 1.40649 1.47131 1.40649C 1.46179 1.40649 1.45068 1.40894 1.43793 1.4165C 1.40533 1.4353 1.40533 1.46069 1.40533 1.4729L 1.40533 11.4915C 1.40533 11.5037 1.40533 11.5291 1.43793 11.5479C 1.4704 11.5667 1.49249 11.554 1.50311 11.5479Z"/>
<path id="path2_fill" d="M 7.69015 3.98595C 6.01905 1.82711 3.50694 0.376705 0.79787 0.00656209C 0.413805 -0.0460141 0.0591139 0.223089 0.00653777 0.607681C -0.0459329 0.992168 0.223171 1.34644 0.607657 1.39901C 2.95497 1.71969 5.13137 2.97625 6.57888 4.84621C 6.71736 5.02508 6.92508 5.11874 7.13501 5.11874C 7.28525 5.11874 7.43665 5.0708 7.56459 4.97166C 7.87145 4.73415 7.92766 4.29281 7.69015 3.98595Z"/>
</defs>
</svg>

<svg xmlns="http://www.w3.org/2000/svg" xmlns:xlink="http://www.w3.org/1999/xlink" width="27" height="27"><g fill="#F6928D" transform="translate(-752 3179)"><use xlink:href="#A" x="752" y="-3179"/><use xlink:href="#B" x="761.093" y="-3171.98"/><use xlink:href="#C" x="766.105" y="-3175.9"/></g><defs><path id="A" d="M16.993.466c3.482.933 6.392 3.166 8.194 6.287s2.28 6.758 1.348 10.24-3.166 6.39-6.287 8.194C18.168 26.387 15.86 27 13.522 27a13.57 13.57 0 0 1-3.514-.466c-3.482-.933-6.392-3.166-8.194-6.287S-.467 13.49.466 10.008 3.63 3.616 6.753 1.814 13.51-.467 16.993.466zm2.552 23.504a12.01 12.01 0 0 0 5.633-7.341 12.01 12.01 0 0 0-1.208-9.173 12.01 12.01 0 0 0-7.34-5.633c-1.04-.28-2.098-.417-3.148-.417-2.095 0-4.162.55-6.025 1.625a12.01 12.01 0 0 0-5.633 7.341 12.01 12.01 0 0 0 1.208 9.173 12.01 12.01 0 0 0 7.34 5.633 12.01 12.01 0 0 0 9.173-1.208z" fill-rule="evenodd"/><path id="B" d="M2.206.2l8.676 5.01c.46.266.735.742.735 1.273s-.275 1.008-.735 1.274l-8.676 5.01a1.47 1.47 0 0 1-.735.199c-.253 0-.505-.066-.735-.2C.275 12.5 0 12.023 0 11.49V1.473C0 .94.275.465.735.2s1-.266 1.47 0zm-.703 11.348l8.676-5.01c.01-.006.033-.02.033-.056s-.022-.05-.033-.057l-8.676-5.01a.06.06 0 0 0-.032-.01c-.01 0-.02.002-.033.01-.033.02-.033.044-.033.056v10.02c0 .012 0 .038.033.056s.055.006.065 0z" fill-rule="evenodd"/><path id="C" d="M7.7 3.986A10.6 10.6 0 0 0 .798.007c-.384-.053-.74.217-.79.6s.217.74.6.79a9.18 9.18 0 0 1 5.971 3.447.7.7 0 0 0 .986.125c.307-.238.363-.68.126-.986z"/></defs></svg>
